X: 131
T: Sheehan's Reel
M: C|
L: 1/8
R: Reel
B: NEFR #131
B: O'Neill's 1213
Z: John Chambers <jc:trillian.mit.edu>
K:G
|: "G"G2 BG DG BG | "D7"AB cA "G"BG GB | "Am"AE AB cB cA | EA AG "D7"FD EF |
|  "G"G2 BG DG Bd | "C"cB AB "D7"cd ef | "G"ge dB "C"c2 Bc | "D7"dB cA "G"BG G2 :|
|: "G"g2 bg dg bg | gb ag "D7"fd de | "F"=f2 af cf af | "G"gb ag "D7"=fd e^f |
|  "G"g2 bg dg bg | gb ag "D7"fd ef | "G"(3gfe dB "C"c2 Bc | "D7"dB cA "G"BG G2 :|
